dist/images/modal_confirm_email_img1.svg

<svg width="124" height="82" viewBox="0 0 124 82" fill="none" xmlns="http://www.w3.org/2000/svg">
<rect x="1.92432" y="1.92456" width="120.282" height="77.9424" fill="white"/>
<path d="M66.009 64.0417C63.4267 66.8306 59.832 66.8306 57.2656 64.0417C56.4879 63.1954 55.3621 63.3933 54.7538 64.4857C54.1446 65.5754 54.2815 67.1457 55.0602 67.992C56.9864 70.0856 59.2998 71.1324 61.6164 71.1324C63.933 71.1324 66.2518 70.0856 68.1915 67.992C68.9743 67.1457 69.1217 65.5754 68.519 64.4857C67.9164 63.3933 66.7927 63.1954 66.009 64.0417Z" fill="#318CCA" stroke="#318CCA" stroke-width="0.6"/>
<path d="M31.4448 42.8207C29.3804 42.8207 27.4669 44.1147 26.327 46.2827C25.6656 47.5398 25.9385 49.2282 26.9371 50.054C27.9358 50.8797 29.2814 50.5307 29.944 49.2722C30.4202 48.3669 31.1402 48.269 31.4284 48.269C31.7165 48.269 32.4235 48.3769 32.9067 49.2722C33.9146 51.1408 35.5407 50.3562 35.9088 50.054C36.9124 49.2282 37.1966 47.5398 36.5428 46.2827C35.4149 44.1147 33.5092 42.8207 31.4448 42.8207Z" fill="#318CCA" stroke="#318CCA" stroke-width="0.6"/>
<path d="M91.6669 42.8201C89.6025 42.8201 87.6891 44.1141 86.5492 46.2821C85.8878 47.5391 86.1607 49.2276 87.1593 50.0533C88.1579 50.8791 89.5036 50.5301 90.1662 49.2716C90.6423 48.3663 91.3624 48.2684 91.6505 48.2684C91.9387 48.2684 92.6457 48.3763 93.1288 49.2716C94.1368 51.1402 95.7629 50.3556 96.131 50.0533C97.1346 49.2276 97.4188 47.5391 96.7649 46.2821C95.637 44.1141 93.7313 42.8201 91.6669 42.8201Z" fill="#318CCA" stroke="#318CCA" stroke-width="0.6"/>
<path fill-rule="evenodd" clip-rule="evenodd" d="M6.31632 6.29165V75.4998H116.852V6.29165H6.31632ZM1.57908 0C0.706978 0 0 0.704218 0 1.57291V80.2185C0 81.0872 0.706975 81.7914 1.57908 81.7914H121.589C122.461 81.7914 123.168 81.0872 123.168 80.2185V1.57291C123.168 0.704217 122.461 0 121.589 0H1.57908Z" fill="#36A5F2"/>
<path fill-rule="evenodd" clip-rule="evenodd" d="M61.103 46.1895L117.291 9.62274L4.92836 8.66048L61.103 46.1895ZM58.6976 52.3832C60.025 53.1043 61.9823 53.1043 63.3098 52.3832L117.395 17.3207L117.395 9.62273L5.77357 8.66048L6.2547 18.283L58.6976 52.3832Z" fill="#36A5F2"/>
</svg>

<svg width="124" height="82" fill="none" xmlns="http://www.w3.org/2000/svg"><path fill="#fff" d="M1.924 1.925h120.282v77.942H1.924z"/><path d="M66.009 64.042c-2.582 2.789-6.177 2.789-8.743 0-.778-.847-1.904-.649-2.512.444-.61 1.09-.472 2.66.306 3.506 1.926 2.094 4.24 3.14 6.556 3.14 2.317 0 4.636-1.046 6.576-3.14.782-.846.93-2.417.327-3.506-.603-1.093-1.726-1.29-2.51-.444zM31.445 42.82c-2.065 0-3.978 1.295-5.118 3.463-.661 1.257-.389 2.945.61 3.771.999.826 2.344.477 3.007-.782.476-.905 1.196-1.003 1.484-1.003.288 0 .995.108 1.479 1.003 1.008 1.869 2.634 1.084 3.002.782 1.003-.826 1.288-2.514.634-3.771-1.128-2.168-3.034-3.462-5.098-3.462zM91.667 42.82c-2.064 0-3.978 1.294-5.118 3.462-.661 1.257-.388 2.946.61 3.771.999.826 2.345.477 3.007-.781.476-.906 1.196-1.004 1.484-1.004.289 0 .996.108 1.479 1.004 1.008 1.868 2.634 1.084 3.002.781 1.004-.825 1.288-2.514.634-3.77-1.128-2.169-3.034-3.463-5.098-3.463z" fill="#318CCA" stroke="#318CCA" stroke-width=".6"/><path fill-rule="evenodd" clip-rule="evenodd" d="M6.316 6.292V75.5h110.536V6.292H6.316zM1.58 0C.707 0 0 .704 0 1.573v78.646c0 .868.707 1.572 1.58 1.572h120.009c.872 0 1.579-.704 1.579-1.572V1.573c0-.869-.707-1.573-1.579-1.573H1.579z" fill="#36A5F2"/><path fill-rule="evenodd" clip-rule="evenodd" d="M61.103 46.19l56.188-36.567L4.928 8.66l56.175 37.53zm-2.405 6.193c1.327.721 3.284.721 4.612 0l54.085-35.062V9.623L5.774 8.66l.48 9.623 52.444 34.1z" fill="#36A5F2"/></svg>
